src/resources/assets/current.svg

<svg xmlns="http://www.w3.org/2000/svg" width="16" height="16"><path d="M 8 1.601562 C 7.117188 1.601562 6.398438 2.316406 6.398438 3.199219 L 6.398438 12.800781 C 6.398438 13.683594 7.117188 14.398438 8 14.398438 C 8.882812 14.398438 9.601562 13.683594 9.601562 12.800781 L 9.601562 3.199219 C 9.601562 2.316406 8.882812 1.601562 8 1.601562 Z M 3.199219 8 C 2.316406 8 1.601562 8.714844 1.601562 9.601562 L 1.601562 12.800781 C 1.601562 13.683594 2.316406 14.398438 3.199219 14.398438 C 4.082031 14.398438 4.800781 13.683594 4.800781 12.800781 L 4.800781 9.601562 C 4.800781 8.714844 4.082031 8 3.199219 8 Z M 12.800781 4.800781 C 11.917969 4.800781 11.199219 5.515625 11.199219 6.398438 L 11.199219 12.800781 C 11.199219 13.683594 11.917969 14.398438 12.800781 14.398438 C 13.683594 14.398438 14.398438 13.683594 14.398438 12.800781 L 14.398438 6.398438 C 14.398438 5.515625 13.683594 4.800781 12.800781 4.800781 Z M 12.800781 4.800781" fill="#ddd"/></svg>

<svg xmlns="http://www.w3.org/2000/svg" width="16" height="16"><path d="M8 1.602a1.6 1.6 0 00-1.602 1.597v9.602A1.6 1.6 0 008 14.398a1.6 1.6 0 001.602-1.597V3.199A1.6 1.6 0 008 1.602zM3.2 8c-.884 0-1.598.715-1.598 1.602V12.8a1.6 1.6 0 003.2 0L4.8 9.6C4.8 8.716 4.082 8 3.199 8zm9.6-3.2a1.6 1.6 0 00-1.6 1.598v6.403a1.6 1.6 0 003.198 0V6.398c0-.882-.714-1.597-1.597-1.597zm0 0" fill="#ddd"/></svg>
